rospo-icon-theme-classic-common/32x32/apps/charles-proxy.svg

<svg height="32" width="32" xmlns="http://www.w3.org/2000/svg"><path d="m10.699219 3.0033302c-1.0038787.0233334-1.8315213.1574979-2.6269534.4257813-.496746.1675452-1.0335181.4138884-1.2714844.5839844-.1746769.1248494-.3183593.4106793-.3183593.6308593 0 .1157823.055718.3071731.1191406.4101563.026235.042607.1826937.2275609.3496094.4101563.1669228.1825959.3646858.4011166.4394531.4863281 1.3810986 1.5739336 1.5912798 3.0548643 1.665586 4.8906251-.094898.949723-.471093 1.894285-1.232422 2.771484-1.5990722 2.043502-1.9268999 2.890371-2.4292578 4.222657-.1983224.525966-.3070318.971976-.3710937 1.515624-.031428.264821-.029966 1.180802.00195 1.623047.099569 1.379095.3645379 2.631721.828125 3.888672.051633.139988.1284909.348866.1699219.462891.4204676 1.155953 1.3639519 2.729034 2.3007813 3.841797.2250823.267348.8602826.910094 1.1894531 1.203125.3947648.351425.8138712.574556 1.1640622.617187v-.002c.0789.0095 2.056541.01647 4.394532.01367l4.25-.0039.158203-.04687c3.519534-.949181 7.786486-8.592016 6.136719-12.914063-.617185-1.035118-1.570434-1.395787-1.583985-2.179687.000142-.308879.0076-.419011.04102-.541016.08917-.325455.492163-.623249.724609-.898437.05655-.06696.330639-.348931.609375-.628907.662981-.665926.876849-.938624 1.132813-1.445312.206467-.408693.355618-.893999.425781-1.38086.04441-.306193.0434-.888185-.002-1.1992182-.259897-1.7825219-1.571894-3.1843047-3.300736-3.6164386-.487629-.1218891-.921218-.1285011-2.412109-.1464844-2.051466-.0262853-4.35478-.4673413-6.302734-1.690164-1.231358-.6478935-1.657834-.8442329-2.242188-1.03125-.707136-.2263096-1.195176-.2923238-2.007812-.2734376zm10.324219 5.9960938c.588263.000394.870779.00576 1.003906.021484.697032.08234 1.286183.3573081 1.644531.7675781.327697.3751859.412816.8158839.240234 1.2285159-.138649.331513-.289765.476902-.978515.941406-.704165.474912-.951671.671439-1.199219.949219-.04471.05021-.09503.0918-.111328.0918-.01627 0-.07538-.04158-.130859-.0918l-.22461-.201172c-.591152-.534424-1.034233-1.02171-1.173828-1.287109-.05647-.107294-.0701-.165159-.08594-.373047-.04154-.544633.0748-1.8950873.173829-2.0195312.02039-.025687.08498-.027836.841799-.027341z" opacity=".2"/><path d="m10.699219 2.0039062c-1.0038787.0233334-1.8315213.1574979-2.6269534.4257813-.496746.1675452-1.0335181.4138884-1.2714844.5839844-.1746769.1248494-.3183593.4106793-.3183593.6308593 0 .1157823.055718.3071731.1191406.4101563.026235.042607.1826937.2275609.3496094.4101563.1669228.1825959.3646858.4011166.4394531.4863281 1.3810986 1.5739336 1.5912798 3.0548643 1.665586 4.890625-.094898.9497231-.471093 1.8942851-1.232422 2.7714841-1.5990722 2.043502-1.9268999 2.890371-2.4292578 4.222657-.1983224.525966-.3070318.971976-.3710937 1.515624-.031428.264821-.029966 1.180802.00195 1.623047.099569 1.379095.3645379 2.631721.828125 3.888672.051633.139988.1284909.348866.1699219.462891.4204676 1.155953 1.3639519 2.729034 2.3007813 3.841797.2250823.267348.8602826.910094 1.1894531 1.203125.3947648.351425.8138712.574556 1.1640622.617187v-.002c.0789.0095 2.056541.01647 4.394532.01367l4.25-.0039.158203-.04687c3.519534-.949181 7.786486-8.592016 6.136719-12.914063-.617185-1.035118-1.570434-1.395787-1.583985-2.179687.000142-.308879.0076-.419011.04102-.541016.08917-.325455.492163-.623249.724609-.898437.05655-.06696.330639-.348931.609375-.628907.662981-.665926.876849-.938624 1.132813-1.445312.206467-.408693.355618-.893999.425781-1.3808595.04441-.3061938.0434-.8881851-.002-1.1992187-.259897-1.7825219-1.571894-3.1843047-3.300736-3.6164386-.487629-.1218891-.921218-.1285011-2.412109-.1464844-2.051466-.0262853-4.35478-.4673413-6.302734-1.690164-1.231358-.6478935-1.657834-.8442329-2.242188-1.03125-.707136-.2263096-1.195176-.2923238-2.007812-.2734376zm10.324219 5.9960938c.588263.000394.870779.00576 1.003906.021484.697032.08234 1.286183.3573081 1.644531.7675781.327697.375186.412816.8158836.240234 1.2285159-.138649.331513-.289765.476902-.978515.941406-.704165.474912-.951671.671439-1.199219.949219-.04471.050207-.095029.091797-.111328.091797-.01627 0-.07538-.04158-.130859-.0918l-.22461-.201172c-.591152-.534424-1.034233-1.02171-1.173828-1.287109-.05647-.107294-.0701-.165159-.08594-.373047-.04154-.544633.0748-1.8950873.173829-2.0195312.020392-.0256871.084975-.0278358.841799-.0273408z" fill="#e4e4e4"/><path d="m18.73533 25.540359c-1.316517-.760091-5.523154-5.57256-5.523154-5.57256s6.271038 1.236822 7.587554 1.996913c1.316519.76009 1.695633 2.568149 1.351566 3.164091-.344067.595941-2.099449 1.171648-3.415966.411556z" opacity=".2"/><path d="m18.73533 24.540359c-1.316517-.760091-5.523154-5.57256-5.523154-5.57256s6.271038 1.236822 7.587554 1.996913c1.316519.76009 1.695633 2.568149 1.351566 3.164091-.344067.595941-2.099449 1.171648-3.415966.411556z" fill="#4670c8"/><path d="m20.851796 21.569242c-1.468383.393452-7.845854-.03494-7.845854-.03494s5.308857-3.559731 6.777241-3.953183c1.468383-.393451 3.01495.616965 3.193051 1.281649.178102.664688-.656056 2.313016-2.124438 2.70647z" opacity=".2"/><path d="m20.851796 20.569242c-1.468383.393452-7.845854-.03494-7.845854-.03494s5.308857-3.559731 6.777241-3.953183c1.468383-.393451 3.01495.616965 3.193051 1.281649.178102.664688-.656056 2.313016-2.124438 2.70647z" fill="#4ab6e7"/><path d="m19.540359 17.264671c-.760092 1.316518-5.57256 5.523152-5.57256 5.523152s1.23682-6.271036 1.996912-7.587553 2.56815-1.695631 3.164091-1.351564c.595941.344065 1.171648 2.099447.411557 3.415965z" opacity=".2"/><path d="m19.540359 16.264671c-.760092 1.316518-5.57256 5.523152-5.57256 5.523152s1.23682-6.271036 1.996912-7.587553 2.56815-1.695631 3.164091-1.351564c.595941.344065 1.171648 2.099447.411557 3.415965z" fill="#4670c8"/><path d="m9.2002695 20.035288c1.3165175.760093 7.5875545 1.996913 7.5875545 1.996913s-4.206636-4.812467-5.523154-5.572559c-1.3165172-.760091-3.0718985-.184385-3.4159652.411557-.3440673.595942.035047 2.403998 1.3515647 3.164089z" opacity=".2"/><path d="m9.2002695 19.035288c1.3165175.760093 7.5875545 1.996913 7.5875545 1.996913s-4.206636-4.812467-5.523154-5.572559c-1.3165172-.760091-3.0718985-.184385-3.4159652.411557-.3440673.595942.035047 2.403998 1.3515647 3.164089z" fill="#4670c8"/><path d="m14.43076 26.851797c-.393454-1.468386.03494-7.845856.03494-7.845856s3.55973 5.308858 3.953182 6.777241c.39345 1.468386-.616965 3.01495-1.28165 3.193052-.664686.178103-2.313015-.656055-2.706467-2.124437z" opacity=".2"/><path d="m10.216817 24.418875c1.468385-.393452 6.777243-3.953182 6.777243-3.953182s-6.377471-.428389-7.8458552-.03494c-1.4683846.393452-2.3025413 2.041781-2.1244386 2.706467.178102.664687 1.7246673 1.675103 3.1930508 1.281651z" opacity=".2"/><path d="m10.216817 23.418875c1.468385-.393452 6.777243-3.953182 6.777243-3.953182s-6.377471-.428389-7.8458552-.03494c-1.4683846.393452-2.3025413 2.041781-2.1244386 2.706467.178102.664687 1.7246673 1.675103 3.1930508 1.281651z" fill="#4ab6e7"/><path d="m14.43076 25.851797c-.393454-1.468386.03494-7.845856.03494-7.845856s3.55973 5.308858 3.953182 6.777241c.39345 1.468386-.616965 3.01495-1.28165 3.193052-.664686.178103-2.313015-.656055-2.706467-2.124437z" fill="#4ab6e7"/><path d="m14.035289 26.799733c.760092-1.316518 1.996912-7.587556 1.996912-7.587556s-4.812468 4.206636-5.572559 5.523154c-.7600926 1.316516-.184386 3.071898.411557 3.415965.595939.344067 2.403998-.03506 3.16409-1.351563z" opacity=".2"/><path d="m14.035289 25.799733c.760092-1.316518 1.996912-7.587556 1.996912-7.587556s-4.812468 4.206636-5.572559 5.523154c-.7600926 1.316516-.184386 3.071898.411557 3.415965.595939.344067 2.403998-.03506 3.16409-1.351563z" fill="#4670c8"/><path d="m11.581125 16.216817c.393452 1.468385 3.953181 6.777243 3.953181 6.777243s.428389-6.377473.03494-7.845854c-.393453-1.468385-2.041782-2.302542-2.706468-2.12444-.664686.178103-1.675102 1.724668-1.281651 3.193051z" opacity=".2"/><path d="m11.581125 15.216817c.393452 1.468385 3.953181 6.777243 3.953181 6.777243s.428389-6.377473.03494-7.845854c-.393453-1.468385-2.041782-2.302542-2.706468-2.12444-.664686.178103-1.675102 1.724668-1.281651 3.193051z" fill="#4ab6e7"/><circle cx="23.49" cy="10.687" opacity=".2" r="3" transform="matrix(.86602541 .49999999 -.49999999 .86602541 0 0)"/><circle cx="22.99" cy="9.821" fill="#ffb22e" r="3" transform="matrix(.86602541 .49999999 -.49999999 .86602541 0 0)"/><path d="m10.699219 2.0039062c-1.0038789.0233335-1.8315213.1574979-2.6269534.4257813-.496746.1675452-1.0335181.4138884-1.2714844.5839844-.1746769.1248494-.3183593.4106793-.3183593.6308593 0 .1157823.055718.3071731.1191406.4101563.006404.0104004.0657568.0743503.0859375.0996094.0382684-.0482605.0692774-.1091735.1132812-.140625.2379663-.170096.7747384-.4164392 1.2714844-.5839844.7954321-.2682834 1.6230745-.4024479 2.6269534-.4257813.812636-.0188862 1.300676.047128 2.007812.2734376.584354.187017 1.01083.3833565 2.242188 1.03125 1.947954 1.2228226 4.251268 1.6631678 6.302734 1.6894531 1.490891.0179833 1.92448.0245953 2.412109.1464843 1.728843.432134 3.040885 1.8346657 3.300782 3.6171876.004273.0292741.002373.0796624.005859.1132812.035166-.318359.036279-.824597-.005859-1.1132812-.259897-1.782522-1.571939-3.1850536-3.300782-3.6171876-.487629-.1218891-.921218-.128501-2.412109-.1464843-2.051466-.0262853-4.35478-.4666304-6.302734-1.6894531-1.231358-.6478936-1.657834-.8442329-2.242188-1.03125-.707136-.2263096-1.195176-.2923238-2.007812-.2734376zm13.175781 8.0859378c-.132417.279672-.308837.442526-.941406.86914-.704165.474912-.951671.671439-1.199219.949219-.04471.050207-.095029.091797-.111328.091797-.01627 0-.07538-.041577-.130859-.091797l-.22461-.201172c-.591152-.534424-1.034233-1.02171-1.173828-1.287109-.039-.074101-.045621-.165163-.058594-.257813-.020047.327098-.043078.678474-.027344.884766.015841.207888.029468.265753.085938.373047.139595.265399.582676.752685 1.173828 1.287109l.22461.201172c.055479.05022.114589.091797.130859.091797.016298 0 .066618-.041587.111328-.091797.247548-.27778.495054-.474307 1.199219-.949219.68875-.464504.839866-.609893.978515-.941406.128052-.306163.112405-.628894-.037109-.927734zm-14.8710938.048828c-.1386173.848973-.4978624 1.689014-1.1796874 2.474609-1.5990723 2.043502-1.9273296 2.890371-2.4296876 4.222657-.1983224.525966-.3070318.971977-.3710937 1.515624-.0192501.162207-.002916.601838.0019531.994141.0641604-.54075.1715975-.985866.3691406-1.509765.502358-1.332286.8306153-2.179155 2.4296876-4.222657.7613289-.877199 1.1375238-1.821761 1.2324218-2.771484-.0099081-.244785-.0355405-.469896-.0527344-.703125zm15.1171878 5.078125c-.014973.03241-.037841.064683-.046875.097656-.03342.122005-.040874.232137-.041016.541016.013551.7839.9668 1.144569 1.583985 2.179687.200908.526339.310206 1.102235.347656 1.708985.061964-.975666-.038955-1.900251-.347656-2.708985-.51351-.861238-1.252101-1.258673-1.496094-1.818359z" fill="#fff" opacity=".2"/><path d="m14.859375 17.003906a3 3 0 0 0 -2.457031 1.496094 3 3 0 0 0 -.357422 1.996094 3 3 0 0 1  .357422-.996094 3 3 0 0 1 4.097656-1.097656 3 3 0 0 1 1.455078 2.101562 3 3 0 0 0 -1.455078-3.101562 3 3 0 0 0 -1.640625-.398438z" fill="#fff" opacity=".2"/></svg>

<svg xmlns="http://www.w3.org/2000/svg" width="32" height="32" version="1">
 <path d="M 10.699219,3.0033302 C 9.6953403,3.0266636 8.8676977,3.1608281 8.0722656,3.4291115 7.5755196,3.5966567 7.0387475,3.8429999 6.8007812,4.0130959 6.6261043,4.1379453 6.4824219,4.4237752 6.4824219,4.6439552 c 0,0.1157823 0.055718,0.3071731 0.1191406,0.4101563 0.026235,0.042607 0.1826937,0.2275609 0.3496094,0.4101563 0.1669228,0.1825959 0.3646858,0.4011166 0.4394531,0.4863281 1.3810986,1.5739336 1.5912798,3.0548643 1.665586,4.8906251 -0.094898,0.949723 -0.471093,1.894285 -1.232422,2.771484 -1.5990722,2.043502 -1.9268999,2.890371 -2.4292578,4.222657 -0.1983224,0.525966 -0.3070318,0.971976 -0.3710937,1.515624 -0.031428,0.264821 -0.029966,1.180802 0.00195,1.623047 0.099569,1.379095 0.3645379,2.631721 0.828125,3.888672 0.051633,0.139988 0.1284909,0.348866 0.1699219,0.462891 0.4204676,1.155953 1.3639519,2.729034 2.3007813,3.841797 0.2250823,0.267348 0.8602826,0.910094 1.1894531,1.203125 0.3947648,0.351425 0.8138712,0.574556 1.1640622,0.617187 l 0,-0.002 c 0.0789,0.0095 2.056541,0.01647 4.394532,0.01367 l 4.25,-0.0039 0.158203,-0.04687 C 23,29.999424 27.266952,22.356589 25.617185,18.034542 25,16.999424 24.046751,16.638755 24.0332,15.854855 c 1.42e-4,-0.308879 0.0076,-0.419011 0.04102,-0.541016 0.08917,-0.325455 0.492163,-0.623249 0.724609,-0.898437 0.05655,-0.06696 0.330639,-0.348931 0.609375,-0.628907 0.662981,-0.665926 0.876849,-0.938624 1.132813,-1.445312 0.206467,-0.408693 0.355618,-0.893999 0.425781,-1.38086 0.04441,-0.306193 0.0434,-0.888185 -0.002,-1.1992182 C 26.704901,7.9785829 25.392904,6.5768001 23.664062,6.1446662 23.176433,6.0227771 22.742844,6.0161651 21.251953,5.9981818 19.200487,5.9718965 16.897173,5.5308405 14.949219,4.3080178 13.717861,3.6601243 13.291385,3.4637849 12.707031,3.2767678 11.999895,3.0504582 11.511855,2.984444 10.699219,3.0033302 Z M 21.023438,8.999424 c 0.588263,3.94e-4 0.870779,0.00576 1.003906,0.021484 0.697032,0.08234 1.286183,0.3573081 1.644531,0.7675781 0.327697,0.3751859 0.412816,0.8158839 0.240234,1.2285159 -0.138649,0.331513 -0.289765,0.476902 -0.978515,0.941406 -0.704165,0.474912 -0.951671,0.671439 -1.199219,0.949219 -0.04471,0.05021 -0.09503,0.0918 -0.111328,0.0918 -0.01627,0 -0.07538,-0.04158 -0.130859,-0.0918 l -0.22461,-0.201172 c -0.591152,-0.534424 -1.034233,-1.02171 -1.173828,-1.287109 -0.05647,-0.107294 -0.0701,-0.165159 -0.08594,-0.373047 -0.04154,-0.544633 0.0748,-1.8950873 0.173829,-2.0195312 0.02039,-0.025687 0.08498,-0.027836 0.841799,-0.027341 z" style="opacity:0.2"/>
 <path style="fill:#cccccc" d="M 10.699219,2.0039062 C 9.6953403,2.0272396 8.8676977,2.1614041 8.0722656,2.4296875 7.5755196,2.5972327 7.0387475,2.8435759 6.8007812,3.0136719 6.6261043,3.1385213 6.4824219,3.4243512 6.4824219,3.6445312 c 0,0.1157823 0.055718,0.3071731 0.1191406,0.4101563 0.026235,0.042607 0.1826937,0.2275609 0.3496094,0.4101563 0.1669228,0.1825959 0.3646858,0.4011166 0.4394531,0.4863281 1.3810986,1.5739336 1.5912798,3.0548643 1.665586,4.890625 -0.094898,0.9497231 -0.471093,1.8942851 -1.232422,2.7714841 -1.5990722,2.043502 -1.9268999,2.890371 -2.4292578,4.222657 -0.1983224,0.525966 -0.3070318,0.971976 -0.3710937,1.515624 -0.031428,0.264821 -0.029966,1.180802 0.00195,1.623047 0.099569,1.379095 0.3645379,2.631721 0.828125,3.888672 0.051633,0.139988 0.1284909,0.348866 0.1699219,0.462891 0.4204676,1.155953 1.3639519,2.729034 2.3007813,3.841797 0.2250823,0.267348 0.8602826,0.910094 1.1894531,1.203125 0.3947648,0.351425 0.8138712,0.574556 1.1640622,0.617187 l 0,-0.002 c 0.0789,0.0095 2.056541,0.01647 4.394532,0.01367 l 4.25,-0.0039 0.158203,-0.04687 C 23,29 27.266952,21.357165 25.617185,17.035118 25,16 24.046751,15.639331 24.0332,14.855431 c 1.42e-4,-0.308879 0.0076,-0.419011 0.04102,-0.541016 0.08917,-0.325455 0.492163,-0.623249 0.724609,-0.898437 0.05655,-0.06696 0.330639,-0.348931 0.609375,-0.628907 0.662981,-0.665926 0.876849,-0.938624 1.132813,-1.445312 0.206467,-0.408693 0.355618,-0.893999 0.425781,-1.3808595 0.04441,-0.3061938 0.0434,-0.8881851 -0.002,-1.1992187 C 26.704901,6.9791589 25.392904,5.5773761 23.664062,5.1452422 23.176433,5.0233531 22.742844,5.0167411 21.251953,4.9987578 19.200487,4.9724725 16.897173,4.5314165 14.949219,3.3085938 13.717861,2.6607003 13.291385,2.4643609 12.707031,2.2773438 11.999895,2.0510342 11.511855,1.98502 10.699219,2.0039062 Z M 21.023438,8 c 0.588263,3.94e-4 0.870779,0.00576 1.003906,0.021484 0.697032,0.08234 1.286183,0.3573081 1.644531,0.7675781 0.327697,0.375186 0.412816,0.8158836 0.240234,1.2285159 -0.138649,0.331513 -0.289765,0.476902 -0.978515,0.941406 -0.704165,0.474912 -0.951671,0.671439 -1.199219,0.949219 C 21.689665,11.95841 21.639346,12 21.623047,12 c -0.01627,0 -0.07538,-0.04158 -0.130859,-0.0918 l -0.22461,-0.201172 C 20.676426,11.172604 20.233345,10.685318 20.09375,10.419919 20.03728,10.312625 20.02365,10.25476 20.00781,10.046872 19.96627,9.502239 20.08261,8.1517847 20.181639,8.0273408 20.202031,8.0016537 20.266614,7.999505 21.023438,8 Z"/>
 <path d="m 18.73533,25.540359 c -1.316517,-0.760091 -5.523154,-5.57256 -5.523154,-5.57256 0,0 6.271038,1.236822 7.587554,1.996913 1.316519,0.76009 1.695633,2.568149 1.351566,3.164091 -0.344067,0.595941 -2.099449,1.171648 -3.415966,0.411556 z" style="opacity:0.2"/>
 <path style="fill:#4670c8" d="m 18.73533,24.540359 c -1.316517,-0.760091 -5.523154,-5.57256 -5.523154,-5.57256 0,0 6.271038,1.236822 7.587554,1.996913 1.316519,0.76009 1.695633,2.568149 1.351566,3.164091 -0.344067,0.595941 -2.099449,1.171648 -3.415966,0.411556 z"/>
 <path style="opacity:0.2" d="m 20.851796,21.569242 c -1.468383,0.393452 -7.845854,-0.03494 -7.845854,-0.03494 0,0 5.308857,-3.559731 6.777241,-3.953183 1.468383,-0.393451 3.01495,0.616965 3.193051,1.281649 0.178102,0.664688 -0.656056,2.313016 -2.124438,2.70647 z"/>
 <path d="m 20.851796,20.569242 c -1.468383,0.393452 -7.845854,-0.03494 -7.845854,-0.03494 0,0 5.308857,-3.559731 6.777241,-3.953183 1.468383,-0.393451 3.01495,0.616965 3.193051,1.281649 0.178102,0.664688 -0.656056,2.313016 -2.124438,2.70647 z" style="fill:#4ab6e7"/>
 <path style="opacity:0.2" d="m 19.540359,17.264671 c -0.760092,1.316518 -5.57256,5.523152 -5.57256,5.523152 0,0 1.23682,-6.271036 1.996912,-7.587553 0.760092,-1.316517 2.56815,-1.695631 3.164091,-1.351564 0.595941,0.344065 1.171648,2.099447 0.411557,3.415965 z"/>
 <path d="m 19.540359,16.264671 c -0.760092,1.316518 -5.57256,5.523152 -5.57256,5.523152 0,0 1.23682,-6.271036 1.996912,-7.587553 0.760092,-1.316517 2.56815,-1.695631 3.164091,-1.351564 0.595941,0.344065 1.171648,2.099447 0.411557,3.415965 z" style="fill:#4670c8"/>
 <path style="opacity:0.2" d="m 9.2002695,20.035288 c 1.3165175,0.760093 7.5875545,1.996913 7.5875545,1.996913 0,0 -4.206636,-4.812467 -5.523154,-5.572559 -1.3165172,-0.760091 -3.0718985,-0.184385 -3.4159652,0.411557 -0.3440673,0.595942 0.035047,2.403998 1.3515647,3.164089 z"/>
 <path d="m 9.2002695,19.035288 c 1.3165175,0.760093 7.5875545,1.996913 7.5875545,1.996913 0,0 -4.206636,-4.812467 -5.523154,-5.572559 -1.3165172,-0.760091 -3.0718985,-0.184385 -3.4159652,0.411557 -0.3440673,0.595942 0.035047,2.403998 1.3515647,3.164089 z" style="fill:#4670c8"/>
 <path style="opacity:0.2" d="m 14.43076,26.851797 c -0.393454,-1.468386 0.03494,-7.845856 0.03494,-7.845856 0,0 3.55973,5.308858 3.953182,6.777241 0.39345,1.468386 -0.616965,3.01495 -1.28165,3.193052 -0.664686,0.178103 -2.313015,-0.656055 -2.706467,-2.124437 z"/>
 <path d="m 10.216817,24.418875 c 1.468385,-0.393452 6.777243,-3.953182 6.777243,-3.953182 0,0 -6.377471,-0.428389 -7.8458552,-0.03494 -1.4683846,0.393452 -2.3025413,2.041781 -2.1244386,2.706467 0.178102,0.664687 1.7246673,1.675103 3.1930508,1.281651 z" style="opacity:0.2"/>
 <path style="fill:#4ab6e7" d="m 10.216817,23.418875 c 1.468385,-0.393452 6.777243,-3.953182 6.777243,-3.953182 0,0 -6.377471,-0.428389 -7.8458552,-0.03494 -1.4683846,0.393452 -2.3025413,2.041781 -2.1244386,2.706467 0.178102,0.664687 1.7246673,1.675103 3.1930508,1.281651 z"/>
 <path d="m 14.43076,25.851797 c -0.393454,-1.468386 0.03494,-7.845856 0.03494,-7.845856 0,0 3.55973,5.308858 3.953182,6.777241 0.39345,1.468386 -0.616965,3.01495 -1.28165,3.193052 -0.664686,0.178103 -2.313015,-0.656055 -2.706467,-2.124437 z" style="fill:#4ab6e7"/>
 <path d="m 14.035289,26.799733 c 0.760092,-1.316518 1.996912,-7.587556 1.996912,-7.587556 0,0 -4.812468,4.206636 -5.572559,5.523154 -0.7600926,1.316516 -0.184386,3.071898 0.411557,3.415965 0.595939,0.344067 2.403998,-0.03506 3.16409,-1.351563 z" style="opacity:0.2"/>
 <path style="fill:#4670c8" d="m 14.035289,25.799733 c 0.760092,-1.316518 1.996912,-7.587556 1.996912,-7.587556 0,0 -4.812468,4.206636 -5.572559,5.523154 -0.7600926,1.316516 -0.184386,3.071898 0.411557,3.415965 0.595939,0.344067 2.403998,-0.03506 3.16409,-1.351563 z"/>
 <path d="m 11.581125,16.216817 c 0.393452,1.468385 3.953181,6.777243 3.953181,6.777243 0,0 0.428389,-6.377473 0.03494,-7.845854 -0.393453,-1.468385 -2.041782,-2.302542 -2.706468,-2.12444 -0.664686,0.178103 -1.675102,1.724668 -1.281651,3.193051 z" style="opacity:0.2"/>
 <path style="fill:#4ab6e7" d="m 11.581125,15.216817 c 0.393452,1.468385 3.953181,6.777243 3.953181,6.777243 0,0 0.428389,-6.377473 0.03494,-7.845854 -0.393453,-1.468385 -2.041782,-2.302542 -2.706468,-2.12444 -0.664686,0.178103 -1.675102,1.724668 -1.281651,3.193051 z"/>
 <circle style="opacity:0.2" cx="23.49" cy="10.687" r="3" transform="matrix(0.86602541,0.49999999,-0.49999999,0.86602541,0,0)"/>
 <circle cx="22.99" cy="9.821" r="3" transform="matrix(0.86602541,0.49999999,-0.49999999,0.86602541,0,0)" style="fill:#ffb22e"/>
 <path style="fill:#ffffff;opacity:0.2" d="M 10.699219 2.0039062 C 9.6953401 2.0272397 8.8676977 2.1614041 8.0722656 2.4296875 C 7.5755196 2.5972327 7.0387475 2.8435759 6.8007812 3.0136719 C 6.6261043 3.1385213 6.4824219 3.4243512 6.4824219 3.6445312 C 6.4824219 3.7603135 6.5381399 3.9517043 6.6015625 4.0546875 C 6.6079665 4.0650879 6.6673193 4.1290378 6.6875 4.1542969 C 6.7257684 4.1060364 6.7567774 4.0451234 6.8007812 4.0136719 C 7.0387475 3.8435759 7.5755196 3.5972327 8.0722656 3.4296875 C 8.8676977 3.1614041 9.6953401 3.0272396 10.699219 3.0039062 C 11.511855 2.98502 11.999895 3.0510342 12.707031 3.2773438 C 13.291385 3.4643608 13.717861 3.6607003 14.949219 4.3085938 C 16.897173 5.5314164 19.200487 5.9717616 21.251953 5.9980469 C 22.742844 6.0160302 23.176433 6.0226422 23.664062 6.1445312 C 25.392905 6.5766652 26.704947 7.9791969 26.964844 9.7617188 C 26.969117 9.7909929 26.967217 9.8413812 26.970703 9.875 C 27.005869 9.556641 27.006982 9.050403 26.964844 8.7617188 C 26.704947 6.9791968 25.392905 5.5766652 23.664062 5.1445312 C 23.176433 5.0226421 22.742844 5.0160302 21.251953 4.9980469 C 19.200487 4.9717616 16.897173 4.5314165 14.949219 3.3085938 C 13.717861 2.6607002 13.291385 2.4643609 12.707031 2.2773438 C 11.999895 2.0510342 11.511855 1.98502 10.699219 2.0039062 z M 23.875 10.089844 C 23.742583 10.369516 23.566163 10.53237 22.933594 10.958984 C 22.229429 11.433896 21.981923 11.630423 21.734375 11.908203 C 21.689665 11.95841 21.639346 12 21.623047 12 C 21.606777 12 21.547667 11.958423 21.492188 11.908203 L 21.267578 11.707031 C 20.676426 11.172607 20.233345 10.685321 20.09375 10.419922 C 20.05475 10.345821 20.048129 10.254759 20.035156 10.162109 C 20.015109 10.489207 19.992078 10.840583 20.007812 11.046875 C 20.023653 11.254763 20.03728 11.312628 20.09375 11.419922 C 20.233345 11.685321 20.676426 12.172607 21.267578 12.707031 L 21.492188 12.908203 C 21.547667 12.958423 21.606777 13 21.623047 13 C 21.639345 13 21.689665 12.958413 21.734375 12.908203 C 21.981923 12.630423 22.229429 12.433896 22.933594 11.958984 C 23.622344 11.49448 23.77346 11.349091 23.912109 11.017578 C 24.040161 10.711415 24.024514 10.388684 23.875 10.089844 z M 9.0039062 10.138672 C 8.8652889 10.987645 8.5060438 11.827686 7.8242188 12.613281 C 6.2251465 14.656783 5.8968892 15.503652 5.3945312 16.835938 C 5.1962088 17.361904 5.0874994 17.807915 5.0234375 18.351562 C 5.0041874 18.513769 5.0205215 18.9534 5.0253906 19.345703 C 5.089551 18.804953 5.1969881 18.359837 5.3945312 17.835938 C 5.8968892 16.503652 6.2251465 15.656783 7.8242188 13.613281 C 8.5855477 12.736082 8.9617426 11.79152 9.0566406 10.841797 C 9.0467325 10.597012 9.0211001 10.371901 9.0039062 10.138672 z M 24.121094 15.216797 C 24.106121 15.249207 24.083253 15.28148 24.074219 15.314453 C 24.040799 15.436458 24.033345 15.54659 24.033203 15.855469 C 24.046754 16.639369 25.000003 17.000038 25.617188 18.035156 C 25.818096 18.561495 25.927394 19.137391 25.964844 19.744141 C 26.026808 18.768475 25.925889 17.84389 25.617188 17.035156 C 25.103678 16.173918 24.365087 15.776483 24.121094 15.216797 z"/>
 <path style="opacity:0.2;fill:#ffffff" d="M 14.859375 17.003906 A 3 3 0 0 0 12.402344 18.5 A 3 3 0 0 0 12.044922 20.496094 A 3 3 0 0 1 12.402344 19.5 A 3 3 0 0 1 16.5 18.402344 A 3 3 0 0 1 17.955078 20.503906 A 3 3 0 0 0 16.5 17.402344 A 3 3 0 0 0 14.859375 17.003906 z"/>
</svg>
